svg/chart_gantt.svg

<svg xmlns="http://www.w3.org/2000/svg" viewBox="0 0 24 24"><path d="M2 5h8V2h2v20h-2v-4H6v-3h4v-2H4v-3h6V8H2zm12 0h3v3h-3zm0 5h5v3h-5zm0 5h8v3h-8z"/></svg>

<?xml version="1.0" encoding="UTF-8"?><!DOCTYPE svg PUBLIC "-//W3C//DTD SVG 1.1//EN" "http://www.w3.org/Graphics/SVG/1.1/DTD/svg11.dtd"><svg xmlns="http://www.w3.org/2000/svg" xmlns:xlink="http://www.w3.org/1999/xlink" version="1.1" id="mdi-chart-gantt" width="24" height="24" viewBox="0 0 24 24"><path d="M2,5H10V2H12V22H10V18H6V15H10V13H4V10H10V8H2V5M14,5H17V8H14V5M14,10H19V13H14V10M14,15H22V18H14V15Z" /></svg>
